**harmony	**harte	**kern	**silbe	**rhyme	**timestamp	**phrase	**leadinstrument
*M12/8	*M12/8	*ICvox	*	*	*	*	*
*	*	*VRlead	*	*	*	*	*
*	*	*Hstimme	*	*	*	*	*
*E:	*E:	*E:	*	*	*	*	*
1.r;	1.r	1.r;	.	.	0	.	r
*	*	*E:	*	*	*	*	*
*	*	*clefF4	*	*	*	*	*
=1	=1	=1	=1	=1	=1	=1	=1
*>Letter>A	*>Letter>A	*>Letter>A	*>Letter>A	*>Letter>A	*>Letter>A	*>Letter>A	*>Letter>A
*>Label>Intro	*>Label>Intro	*>Label>Intro	*>Label>Intro	*>Label>Intro	*>Label>Intro	*>Label>Intro	*>Label>Intro
2.EM	E:1	1.r	.	.	0.395	newline	guitar
2.AM	A:1	.	.	.	1.871	.	guitar
=2	=2	=2	=2	=2	=2	=2	=2
1.EM	E:1	2.r	.	.	3.347	.	guitar
.	.	4.r	.	.	.	.	.
.	.	4.d#	One	.	.	.	.
=3	=3	=3	=3	=3	=3	=3	=3
*>Letter>B	*>Letter>B	*>Letter>B	*>Letter>B	*>Letter>B	*>Letter>B	*>Letter>B	*>Letter>B
*>Label>Verse	*>Label>Verse	*>Label>Verse	*>Label>Verse	*>Label>Verse	*>Label>Verse	*>Label>Verse	*>Label>Verse
1.EMm	E:7	4.d#	ni-	.	6.3	newline	voice
.	.	4c#	-ght	.	.	.	.
.	.	8c#	with	.	.	.	.
=3	=3	=3	=3	=3	=3	=3	=3
.	.	1.G#	you	A	.	.	.
=4	=4	=4	=4	=4	=4	=4	=4
1.EMm	E:7	.	.	.	9.235	.	voice
=4	=4	=4	=4	=4	=4	=4	=4
.	.	4.r	.	.	.	.	.
.	.	8r	.	.	.	.	.
.	.	[4d#	is	.	.	.	.
=5	=5	=5	=5	=5	=5	=5	=5
1.BMm	B:7	4d#]	_	.	12.171	.	voice
.	.	8d#	what	.	.	.	.
.	.	4.c#	I'm	.	.	.	.
=5	=5	=5	=5	=5	=5	=5	=5
.	.	4A	now	.	.	.	.
.	.	4B	pray-	.	.	.	.
.	.	4A	-ing	.	.	.	.
=6	=6	=6	=6	=6	=6	=6	=6
1.BMm	B:7	2.F#	for	.	15.106	.	voice
=6	=6	=6	=6	=6	=6	=6	=6
.	.	4.r	.	.	.	.	.
.	.	4r	.	.	.	.	.
.	.	8d#	the	.	.	.	.
=7	=7	=7	=7	=7	=7	=7	=7
1.BMm	B:7	4.d#	things	.	18.042	newline	voice
.	.	4c#	that	.	.	.	.
.	.	[8A	we	.	.	.	.
=7	=7	=7	=7	=7	=7	=7	=7
.	.	4A]	_	.	.	.	.
.	.	[8B	two	.	.	.	.
.	.	8B]	_	.	.	.	.
.	.	4A	could	.	.	.	.
=8	=8	=8	=8	=8	=8	=8	=8
1.BMm	B:7	2.F#	plan	.	20.975	.	voice
=8	=8	=8	=8	=8	=8	=8	=8
.	.	4r	.	.	.	.	.
.	.	8F#	would	.	.	.	.
.	.	8G#	make	.	.	.	.
.	.	8A	my	.	.	.	.
.	.	[8c#	dreams	.	.	.	.
=9	=9	=9	=9	=9	=9	=9	=9
1.EMm	E:7	4.c#_	_	.	23.907	.	voice
.	.	8c#]	_	.	.	.	.
.	.	4B	come	.	.	.	.
=9	=9	=9	=9	=9	=9	=9	=9
.	.	1.G#	true	A	.	.	.
=10	=10	=10	=10	=10	=10	=10	=10
1.EMm	E:7	.	.	.	26.84	.	voice
=10	=10	=10	=10	=10	=10	=10	=10
.	.	4.r	.	.	.	.	.
.	.	4.d#	Just	.	.	.	.
=11	=11	=11	=11	=11	=11	=11	=11
*>Letter>B	*>Letter>B	*>Letter>B	*>Letter>B	*>Letter>B	*>Letter>B	*>Letter>B	*>Letter>B
*>Label>Verse	*>Label>Verse	*>Label>Verse	*>Label>Verse	*>Label>Verse	*>Label>Verse	*>Label>Verse	*>Label>Verse
1.EMm	E:7	4.d#	call	.	29.772	newline	voice
.	.	4c#	my	.	.	.	.
.	.	8c#	name	.	.	.	.
=11	=11	=11	=11	=11	=11	=11	=11
.	.	1.G#	_	.	.	.	.
=12	=12	=12	=12	=12	=12	=12	=12
1.EMm	E:7	.	.	.	32.688	.	voice
=12	=12	=12	=12	=12	=12	=12	=12
.	.	4.r	.	.	.	.	.
.	.	4r	.	.	.	.	.
.	.	8d#	and	.	.	.	.
=13	=13	=13	=13	=13	=13	=13	=13
1.BMm	B:7	4.d#	I'll	.	35.605	.	voice
.	.	4c#	be	.	.	.	.
.	.	[8A	right	.	.	.	.
=13	=13	=13	=13	=13	=13	=13	=13
.	.	4A]	_	.	.	.	.
.	.	[8B	by	.	.	.	.
.	.	8B]	_	.	.	.	.
.	.	4A	your	.	.	.	.
=14	=14	=14	=14	=14	=14	=14	=14
1.BMm	B:7	2.F#	side	B	38.521	.	voice
=14	=14	=14	=14	=14	=14	=14	=14
.	.	4.r	.	.	.	.	.
.	.	4r	.	.	.	.	.
.	.	8d#	I	.	.	.	.
=15	=15	=15	=15	=15	=15	=15	=15
1.BMm	B:7	4.d#	want	.	41.437	newline	voice
.	.	4c#	your	.	.	.	.
.	.	[8A	sweet	.	.	.	.
=15	=15	=15	=15	=15	=15	=15	=15
.	.	4A]	_	.	.	.	.
.	.	[8B	help-	.	.	.	.
.	.	8B]	_	.	.	.	.
.	.	4A	-ing	.	.	.	.
=16	=16	=16	=16	=16	=16	=16	=16
1.BMm	B:7	2.F#	hand	.	44.429	.	voice
=16	=16	=16	=16	=16	=16	=16	=16
.	.	4r	.	.	.	.	.
.	.	8F#	my	.	.	.	.
.	.	8G#	love's	.	.	.	.
.	.	8A	too	.	.	.	.
.	.	[8c#	strong	.	.	.	.
=17	=17	=17	=17	=17	=17	=17	=17
1.EM	E:maj	4.c#_	_	.	47.421	.	voice
.	.	8c#]	_	.	.	.	.
.	.	4B	to	.	.	.	.
=17	=17	=17	=17	=17	=17	=17	=17
.	.	1.G#	hide	B	.	.	.
=18	=18	=18	=18	=18	=18	=18	=18
1.EMm	E:7	.	.	.	50.414	.	voice
=18	=18	=18	=18	=18	=18	=18	=18
.	.	1.r	.	.	.	.	.
=19	=19	=19	=19	=19	=19	=19	=19
*>Letter>C	*>Letter>C	*>Letter>C	*>Letter>C	*>Letter>C	*>Letter>C	*>Letter>C	*>Letter>C
*>Label>Bridge	*>Label>Bridge	*>Label>Bridge	*>Label>Bridge	*>Label>Bridge	*>Label>Bridge	*>Label>Bridge	*>Label>Bridge
1.AM	A:maj	.	.	.	53.406	newline	voice
=19	=19	=19	=19	=19	=19	=19	=19
.	.	4.r	.	.	.	.	.
.	.	8r	.	.	.	.	.
.	.	8g	Al-	.	.	.	.
.	.	8f#	-ways	.	.	.	.
=20	=20	=20	=20	=20	=20	=20	=20
1.AM	A:maj	8e	lived	.	56.366	.	voice
.	.	8r	.	.	.	.	.
.	.	2r	.	.	.	.	.
=20	=20	=20	=20	=20	=20	=20	=20
.	.	8r	.	.	.	.	.
.	.	8g	ve-	.	.	.	.
.	.	8e	-ry	.	.	.	.
.	.	8f#	quiet	.	.	.	.
.	.	4e	life	.	.	.	.
=21	=21	=21	=21	=21	=21	=21	=21
1.EM	E:maj	4.r	.	.	59.327	.	voice
.	.	4.r	.	.	.	.	.
=21	=21	=21	=21	=21	=21	=21	=21
.	.	4.r	.	.	.	.	.
.	.	8r	.	.	.	.	.
.	.	8e	I	.	.	.	.
.	.	8e	ain't	.	.	.	.
=22	=22	=22	=22	=22	=22	=22	=22
1.EM	E:maj	8e	ne-	.	62.288	.	voice
.	.	8e	-ver	.	.	.	.
.	.	8r	.	.	.	.	.
.	.	4r	.	.	.	.	.
.	.	8e	did	.	.	.	.
=22	=22	=22	=22	=22	=22	=22	=22
.	.	8B	no	.	.	.	.
.	.	8c#	wrong	C	.	.	.
.	.	[8B	_	.	.	.	.
.	.	4B]	_	.	.	.	.
.	.	8r	.	.	.	.	.
=23	=23	=23	=23	=23	=23	=23	=23
1.F#Mm	F#:7	2.r	.	.	65.248	newline	voice
=23	=23	=23	=23	=23	=23	=23	=23
.	.	4r	.	.	.	.	.
.	.	8F#	now	.	.	.	.
.	.	4A#	I	.	.	.	.
.	.	[8c#	know	.	.	.	.
=24	=24	=24	=24	=24	=24	=24	=24
1.F#Mm	F#:7	8c#]	_	.	68.162	.	voice
.	.	4r	.	.	.	.	.
.	.	4r	.	.	.	.	.
.	.	16c#	that	.	.	.	.
.	.	16c#	a	.	.	.	.
=24	=24	=24	=24	=24	=24	=24	=24
.	.	4f#	life	.	.	.	.
.	.	8f#	with-	.	.	.	.
.	.	4d#	-out	.	.	.	.
.	.	8d#	you	.	.	.	.
=25	=25	=25	=25	=25	=25	=25	=25
1.BMm	B:7	4.c#	_	.	71.076	.	voice
.	.	4.r	.	.	.	.	.
=25	=25	=25	=25	=25	=25	=25	=25
.	.	4.g#	s'been	.	.	.	.
.	.	4.g#	too	.	.	.	.
=26	=26	=26	=26	=26	=26	=26	=26
1.N	N	4g#	lone-	.	73.99	.	voice
.	.	8e	-ly	.	.	.	.
.	.	4g#	too	.	.	.	.
.	.	[8B	long	C	.	.	.
=26	=26	=26	=26	=26	=26	=26	=26
.	.	4B]	_	.	.	.	.
.	.	8r	.	.	.	.	.
.	.	4.d#	One	.	.	.	.
=27	=27	=27	=27	=27	=27	=27	=27
*>Letter>B	*>Letter>B	*>Letter>B	*>Letter>B	*>Letter>B	*>Letter>B	*>Letter>B	*>Letter>B
*>Label>Verse	*>Label>Verse	*>Label>Verse	*>Label>Verse	*>Label>Verse	*>Label>Verse	*>Label>Verse	*>Label>Verse
1.EM	E:maj	4.d#	night	.	76.904	newline	voice
.	.	4c#	_	.	.	.	.
.	.	8c#	with	.	.	.	.
=27	=27	=27	=27	=27	=27	=27	=27
.	.	1.G#	you	A	.	.	.
=28	=28	=28	=28	=28	=28	=28	=28
1.EM	E:maj	.	.	.	79.848	.	voice
=28	=28	=28	=28	=28	=28	=28	=28
.	.	4.r	.	.	.	.	.
.	.	8r	.	.	.	.	.
.	.	[4d#	is	.	.	.	.
=29	=29	=29	=29	=29	=29	=29	=29
1.BMm	B:7	4d#]	_	.	82.791	.	voice
.	.	8d#	what	.	.	.	.
.	.	4.c#	I'm	.	.	.	.
=29	=29	=29	=29	=29	=29	=29	=29
.	.	4A	now	.	.	.	.
.	.	[8B	pray-	.	.	.	.
.	.	8B]	_	.	.	.	.
.	.	4A	-ing	.	.	.	.
=30	=30	=30	=30	=30	=30	=30	=30
1.BMm	B:7	2.F#	for	.	85.734	.	voice
=30	=30	=30	=30	=30	=30	=30	=30
.	.	4.r	.	.	.	.	.
.	.	4r	.	.	.	.	.
.	.	8d#	the	.	.	.	.
=31	=31	=31	=31	=31	=31	=31	=31
1.BMm	B:7	4.d#	things	.	88.677	newline	voice
.	.	4c#	that	.	.	.	.
.	.	[8A	we	.	.	.	.
=31	=31	=31	=31	=31	=31	=31	=31
.	.	4A]	_	.	.	.	.
.	.	[8B	two	A	.	.	.
.	.	8B]	_	.	.	.	.
.	.	4A	could	.	.	.	.
=32	=32	=32	=32	=32	=32	=32	=32
1.BMm	B:7	2.F#	plan	.	91.643	.	voice
=32	=32	=32	=32	=32	=32	=32	=32
.	.	4r	.	.	.	.	.
.	.	8F#	would	.	.	.	.
.	.	8G#	make	.	.	.	.
.	.	8A	my	.	.	.	.
.	.	[8c#	dreams	.	.	.	.
=33	=33	=33	=33	=33	=33	=33	=33
1.EM	E:maj	4.c#_	_	.	94.61	.	voice
.	.	8c#]	_	.	.	.	.
.	.	4D#	come	.	.	.	.
=33	=33	=33	=33	=33	=33	=33	=33
.	.	1.E	true	A	.	.	.
=34	=34	=34	=34	=34	=34	=34	=34
1.EMm	E:7	.	.	.	97.576	.	voice
=34	=34	=34	=34	=34	=34	=34	=34
.	.	1.r	.	.	.	.	.
=35	=35	=35	=35	=35	=35	=35	=35
*>Letter>C	*>Letter>C	*>Letter>C	*>Letter>C	*>Letter>C	*>Letter>C	*>Letter>C	*>Letter>C
*>Label>Bridge	*>Label>Bridge	*>Label>Bridge	*>Label>Bridge	*>Label>Bridge	*>Label>Bridge	*>Label>Bridge	*>Label>Bridge
1.AM	A:maj	.	.	.	100.542	newline	voice
=35	=35	=35	=35	=35	=35	=35	=35
.	.	4.r	.	.	.	.	.
.	.	8r	.	.	.	.	.
.	.	8g	Al-	.	.	.	.
.	.	8f#	-ways	.	.	.	.
=36	=36	=36	=36	=36	=36	=36	=36
1.AM	A:maj	8e	lived	.	103.568	.	voice
.	.	8r	.	.	.	.	.
.	.	2r	.	.	.	.	.
=36	=36	=36	=36	=36	=36	=36	=36
.	.	8r	.	.	.	.	.
.	.	8g	ve-	.	.	.	.
.	.	8e	-ry	.	.	.	.
.	.	8f#	quiet	.	.	.	.
.	.	4e	life	.	.	.	.
=37	=37	=37	=37	=37	=37	=37	=37
1.EM	E:maj	4.r	.	.	106.594	.	voice
.	.	4.r	.	.	.	.	.
=37	=37	=37	=37	=37	=37	=37	=37
.	.	4.r	.	.	.	.	.
.	.	8r	.	.	.	.	.
.	.	8e	I	.	.	.	.
.	.	8e	ain't	.	.	.	.
=38	=38	=38	=38	=38	=38	=38	=38
1.EM	E:maj	8e	ne-	.	109.62	.	voice
.	.	8e	-ver	.	.	.	.
.	.	8r	.	.	.	.	.
.	.	4r	.	.	.	.	.
.	.	8e	did	.	.	.	.
=38	=38	=38	=38	=38	=38	=38	=38
.	.	8B	no	.	.	.	.
.	.	8c#	wrong	C	.	.	.
.	.	[8B	_	.	.	.	.
.	.	4B]	_	.	.	.	.
.	.	8r	.	.	.	.	.
=39	=39	=39	=39	=39	=39	=39	=39
1.F#Mm	F#:7	2.r	.	.	112.647	newline	voice
=39	=39	=39	=39	=39	=39	=39	=39
.	.	4r	.	.	.	.	.
.	.	8F#	now	.	.	.	.
.	.	4A#	I	.	.	.	.
.	.	[8c#	know	.	.	.	.
=40	=40	=40	=40	=40	=40	=40	=40
1.F#Mm	F#:7	8c#]	_	.	115.605	.	voice
.	.	4r	.	.	.	.	.
.	.	4r	.	.	.	.	.
.	.	16c#	that	.	.	.	.
.	.	16c#	a	.	.	.	.
=40	=40	=40	=40	=40	=40	=40	=40
.	.	4f#	life	.	.	.	.
.	.	8f#	with-	.	.	.	.
.	.	4d#	-out	.	.	.	.
.	.	8d#	you	.	.	.	.
=41	=41	=41	=41	=41	=41	=41	=41
1.BMm	B:7	4.c#	_	.	118.564	.	voice
.	.	4.r	.	.	.	.	.
=41	=41	=41	=41	=41	=41	=41	=41
.	.	4.g#	s'been	.	.	.	.
.	.	4.g#	too	.	.	.	.
=42	=42	=42	=42	=42	=42	=42	=42
1.N	N	4g#	lone-	.	121.523	.	voice
.	.	8e	-ly	.	.	.	.
.	.	4g#	too	.	.	.	.
.	.	[8B	long	C	.	.	.
=42	=42	=42	=42	=42	=42	=42	=42
.	.	4B]	_	.	.	.	.
.	.	8r	.	.	.	.	.
.	.	4.d#	One	.	.	.	.
=43	=43	=43	=43	=43	=43	=43	=43
*>Letter>B	*>Letter>B	*>Letter>B	*>Letter>B	*>Letter>B	*>Letter>B	*>Letter>B	*>Letter>B
*>Label>Verse	*>Label>Verse	*>Label>Verse	*>Label>Verse	*>Label>Verse	*>Label>Verse	*>Label>Verse	*>Label>Verse
1.EM	E:maj	4.d#	night	.	124.481	newline	voice
.	.	4c#	_	.	.	.	.
.	.	8c#	with	.	.	.	.
=43	=43	=43	=43	=43	=43	=43	=43
.	.	1.G#	you	A	.	.	.
=44	=44	=44	=44	=44	=44	=44	=44
1.EM	E:maj	.	.	.	127.465	.	voice
=44	=44	=44	=44	=44	=44	=44	=44
.	.	4.r	.	.	.	.	.
.	.	4r	.	.	.	.	.
.	.	8d#	is	.	.	.	.
=45	=45	=45	=45	=45	=45	=45	=45
1.BMm	B:7	4.d#	what	.	130.449	.	voice
.	.	4c#	I'm	.	.	.	.
.	.	[8A	now	.	.	.	.
=45	=45	=45	=45	=45	=45	=45	=45
.	.	4A]	_	.	.	.	.
.	.	[8B	pray-	.	.	.	.
.	.	8B]	_	.	.	.	.
.	.	4A	-ing	.	.	.	.
=46	=46	=46	=46	=46	=46	=46	=46
1.BMm	B:7	2.F#	for	.	133.433	.	voice
=46	=46	=46	=46	=46	=46	=46	=46
.	.	4.r	.	.	.	.	.
.	.	4r	.	.	.	.	.
.	.	8d#	the	.	.	.	.
=47	=47	=47	=47	=47	=47	=47	=47
1.BMm	B:7	4.d#	things	.	136.417	newline	voice
.	.	4c#	that	.	.	.	.
.	.	[8A	we	.	.	.	.
=47	=47	=47	=47	=47	=47	=47	=47
.	.	4A]	_	.	.	.	.
.	.	[8B	too	A	.	.	.
.	.	8B]	_	.	.	.	.
.	.	4A	could	.	.	.	.
=48	=48	=48	=48	=48	=48	=48	=48
1.BMm	B:7	2.F#	plan	.	139.569	.	voice
=48	=48	=48	=48	=48	=48	=48	=48
.	.	4r	.	.	.	.	.
.	.	8B	would	.	.	.	.
.	.	4c#	make	.	.	.	.
.	.	8d#	my	.	.	.	.
=49	=49	=49	=49	=49	=49	=49	=49
2.EM	E:maj	4.g#	dreams	.	142.721	.	voice
.	.	4g#	come	.	.	.	.
.	.	8e	true	A	.	.	.
=49	=49	=49	=49	=49	=49	=49	=49
2.AM	A:maj	8f#	_	.	144.298	.	voice
.	.	[4e	_	.	.	.	.
.	.	4.e_	_	.	.	.	.
=50	=50	=50	=50	=50	=50	=50	=50
4.EM	E:maj	2.e]	_	.	145.874	.	voice
4.BMm	B:7	.	.	.	146.662	.	voice
=50	=50	=50	=50	=50	=50	=50	=50
2.EM	E:maj	1.r	.	.	147.45	.	voice
1r;	1r	.	.	.	149.026	.	r
.	.	r;	.	.	.	.	.
1r;	1r	r;	.	.	151.04	.	r
*-	*-	*-	*-	*-	*-	*-	*-
!!!BillboardChartDate: 1959/01/19
!!!BillboardPeak: 4
!!!BillboardWeeksOnChart: 17
!!!COC: Elvis Presley
!!!ENC: Nathaniel Condit-Schultz
!!!EST: Awating manual error checking and editing.
!!!OTL: One Night
!!!RDF**chordsym: original McGill chord annotation + (implied pitch class set, with bass pitch in first position)
!!!RDF**harmony: **recip + pitch class of root + harmonic quality
!!!RDF**leadinstrument: original McGill primary instrumentation annotation
!!!RDF**phrase: newline = linebreak in original McGill transcription
!!!RDF**timestamp: McGill audio timestamp in seconds
!!!RDT: 2017/01/12/
!!!SampleActualRank: 13
!!!SampleID#: 0399
!!!SampleTargetRank: 14
!!!MBID: fd284876-d3ec-4525-875a-6fa62caf3ec4
